X:28
T:Polska fr{\aa}n Bingsj\"o
R:polska J
A:Dalarna
Z:id:hn-jp-28
M:3/4
L:1/16
K:D
D3F A2A2 d2f2 | efed cdef g4 | D3F A2A2 d2d2 | A2BA G2AG F2AF |
D3F A2A2 d2f2 | efed cdef g4 | g2gg b2gb a2g2 | egec d8 :|
|: D2FA d2d2 c4 | A2ce g2g2 f4 | d2dd b2gb a2g2 | egec d2A2 FGFE |
D2FA d2d2 c4 | A2ce g2g2 f4 | d2dd b2gb a2g2 | egec d8 :|
<end>
<start>
